X: 1
T: Hornpipe from Kohler's
R: hornpipe
Z: 2006 John Chambers <jc:trillian.mit.edu>
S: MS of unknown origin
M: C|
L: 1/8
K: C
G2 \
| "C"cBcd cdef | g^fga gedc | "F"AGAB cdcA | "C"GEcA GECE | "F"FEFG "Dm"AGAB |
| "C"cBcd "Am"egag | "F"fedc "G"AcBd | "C"eccB c2 :: gf | "C"egcg ecg | "G"dgBg dgBg |
| "Am"ceAe ceAe | "C"GcEc GcEG | "F"FEFG "Dm"AGAB | "C"cBcd "Am"egag | "F"fedc "G"AcBd | "C"eccB c2 :|
